X:1
T:Bayamón, 87.87 D
T:Bayamón, 87.87 D
T:Daniel Brink Towner, 1899
T:Public Domain Courtesy of the Cyber Hymnal™
C:Daniel Brink Towner, 1899
Z:Public Domain
Z:Courtesy of the Cyber Hymnal™
%%score ( 1 2 ) ( 3 4 )
L:1/8
Q:1/4=107
M:4/4
K:G
V:1 treble 
V:2 treble 
V:3 bass 
V:4 bass 
V:1
 [DB]2 [CA]2 [B,G]2 [^DF]2 | (AG) ([DF][CE]) [B,D]2 [DG]2 | [CE]2 [Dc]2 [DB]2 (GA) | %3
 [DB]2 [DB]2 [DA]4 | [DB]2 [CA]2 [B,G]2 [^DF]2 | (AG) ([DF][CE]) [B,D]2 [DG]2 | %6
 [CE]2 [Dc]2 [DB]2 [DG]2 | [EA]2 [DF]2 [DG]4 | [FA]2 [FA]2 [FA]2 [DF]2 | %9
 ([FA][EG]) ([DF][^CE]) [DF]2 [A,D]2 | [FA]2 [FA]2 [FA]2 [DF]2 | ([FA][EG]) ([DF][^CE]) D4 | %12
 [DB]2 [CA]2 [B,G]2 [^DF]2 | (AG) ([DF][CE]) [B,D]2 [DG]2 | [CE]2 [Dc]2 [DB]2 [DG]2 | %15
 [EA]2 [DF]2 [DG]4 |] %16
V:2
 x8 | E2 x6 | x6 D2 | x8 | x8 | E2 x6 | x8 | x8 | x8 | x8 | x8 | x4 D4 | x8 | E2 x6 | x8 | x8 |] %16
V:3
 G,2 [D,F,]2 [E,G,]2 (B,A,) | [C,G,]2 [C,G,]2 [G,,G,]2 [B,,G,]2 | [C,G,]2 [A,,F,]2 [G,,G,]2 G,2 | %3
 [D,G,]2 [D,G,]2 [D,F,]4 | G,2 [D,F,]2 [E,G,]2 (B,A,) | [C,G,]2 [C,G,]2 [G,,G,]2 [B,,G,]2 | %6
 [C,G,]2 [A,,F,]2 [G,,G,]2 [B,,G,]2 | [C,C]2 [D,C]2 [G,,B,]4 | [D,D]2 [D,D]2 [D,D]2 [D,A,]2 | %9
 A,2 A,2 [D,A,]2 [D,F,]2 | [D,D]2 [D,D]2 [D,D]2 [D,A,]2 | [A,,A,]2 (A,G,) [D,F,]4 | %12
 G,2 [D,F,]2 [E,G,]2 (B,A,) | [C,G,]2 [C,G,]2 [G,,G,]2 [B,,G,]2 | %14
 [C,G,]2 [A,,F,]2 [G,,G,]2 [B,,G,]2 | [C,C]2 [D,C]2 [G,,B,]4 |] %16
V:4
 G,2 x2 B,,2 x2 | x8 | x6 (B,,C,) | x8 | G,2 x2 B,,2 x2 | x8 | x8 | x8 | x8 | A,2 A,2 x4 | x8 | %11
 x2 A,,2 x4 | G,2 x2 B,,2 x2 | x8 | x8 | x8 |] %16

